src/assets/img/icons/facebook.svg

<svg width="22" height="22" viewBox="0 0 22 22" fill="none" xmlns="http://www.w3.org/2000/svg">
<path d="M21.5 2.75V19.25C21.5 19.875 21.2812 20.4062 20.8438 20.8438C20.4062 21.2812 19.875 21.5 19.25 21.5H15.2656V13.2031H18.0781L18.5 10.0156H15.2656V8C15.2656 7.5 15.3594 7.125 15.5469 6.875C15.7969 6.59375 16.2188 6.45312 16.8125 6.45312H18.5V3.64062C17.8438 3.54688 17.0312 3.5 16.0625 3.5C14.8125 3.5 13.8125 3.875 13.0625 4.625C12.3438 5.34375 11.9844 6.35938 11.9844 7.67188V10.0156H9.125V13.2031H11.9844V21.5H2.75C2.125 21.5 1.59375 21.2812 1.15625 20.8438C0.71875 20.4062 0.5 19.875 0.5 19.25V2.75C0.5 2.125 0.71875 1.59375 1.15625 1.15625C1.59375 0.71875 2.125 0.5 2.75 0.5H19.25C19.875 0.5 20.4062 0.71875 20.8438 1.15625C21.2812 1.59375 21.5 2.125 21.5 2.75Z" fill="url(#paint0_linear)"/>
<defs>
<linearGradient id="paint0_linear" x1="11" y1="-1" x2="11" y2="23" gradientUnits="userSpaceOnUse">
<stop stop-color="#BC9CFF"/>
<stop offset="1" stop-color="#8BA4F9"/>
</linearGradient>
</defs>
</svg>

<svg xmlns="http://www.w3.org/2000/svg" width="22" height="22" fill="none"><path fill="url(#paint0_linear)" d="M21.5 2.75v16.5c0 .63-.22 1.16-.66 1.6-.43.43-.96.65-1.59.65h-3.98v-8.3h2.8l.43-3.18h-3.23V8c0-.5.09-.88.28-1.13.25-.28.67-.42 1.26-.42h1.69v-2.8c-.66-.1-1.47-.15-2.44-.15-1.25 0-2.25.38-3 1.13a4.12 4.12 0 00-1.08 3.04v2.35H9.12v3.18h2.86v8.3H2.75c-.63 0-1.16-.22-1.6-.66a2.17 2.17 0 01-.65-1.59V2.75c0-.63.22-1.16.66-1.6C1.59.73 2.13.5 2.75.5h16.5c.63 0 1.16.22 1.6.66.43.43.65.97.65 1.59z"/><defs><linearGradient id="paint0_linear" x1="11" x2="11" y1="-1" y2="23" gradientUnits="userSpaceOnUse"><stop stop-color="#BC9CFF"/><stop offset="1" stop-color="#8BA4F9"/></linearGradient></defs></svg>
